static/assets/images/icons/chainlink.svg

<svg width="256" height="256" viewBox="0 0 256 256" fill="none" xmlns="http://www.w3.org/2000/svg">
<path d="M128.518 70.3057L179.047 99.003V156.68L128.66 185.553L78.1666 156.926V99.285L128.518 70.3057ZM128.518 28L109.988 38.5764L59.5298 67.5558L41 78.1322V178.15L59.5298 188.726L110.059 217.424L128.589 228L147.119 217.424L197.47 188.515L216 177.938V77.7797L197.47 67.2032L146.976 38.5764L128.447 28H128.518Z" fill="black"/>
</svg>

<svg xmlns="http://www.w3.org/2000/svg" fill="none" viewBox="0 0 256 256"><path fill="#000" d="m128.518 70.306 50.529 28.697v57.677l-50.387 28.873-50.493-28.627V99.285zm0-42.306-18.53 10.576-50.458 28.98L41 78.132V178.15l18.53 10.576 50.529 28.698L128.589 228l18.53-10.576 50.351-28.909L216 177.938V77.78l-18.53-10.577-50.494-28.627L128.447 28z"/></svg>
